X: 12661
T: Farrel O'Gara's Schottise
R: barndance
M: 4/4
K: Amajor
|:AF|E2 Ac {Bc}B2 (3agf|(3 edc (3dcB cA FA|E2 Ac {Bc}B2 af|ec Bd cA FA|
[A2E2] Ac {Bc}B2 (3agf|(3 edc (3dcB cA FA|[A2E2] Ac {Bc}B2 af|ec Bc A2:|
|:e2|ae fa ea ce|dB cA BF F2|ae fa ea c'a|ba bc' a2 ab|
c'a fa {ef}e2 ce|dB cA BA FA|[A2E2] Ac {Bc}B2 af|ec Bc A2:|

